X: 13745
T: Forfar Hunt, The
R: reel
M: 4/4
K: Bdorian
|:BFBc d2 ed|(3cBA ec aecA|BFBc d2 ed|(3cBA ec dB ~B2:|
BbBc defd|(3cBA eA fAeA|BbBc defd|cAec dB (3BBB|
BbBc d2 ed|(3cBA eA fAeA|BFBc d2 de|fdec dB B2||

